build/img/advantage_1_mobile.svg

<svg width="89" height="63" viewBox="0 0 89 63" fill="none" xmlns="http://www.w3.org/2000/svg">
<path d="M18.2383 26.0557C16.5391 27.7926 14.6794 28.6611 12.6592 28.6611C9.52507 28.6611 7.05176 27.4056 5.23926 24.8945C3.44564 22.3646 2.54883 18.9945 2.54883 14.7842C2.54883 12.0654 3.05859 9.58268 4.07812 7.33594C5.09766 5.07031 6.51367 3.31445 8.32617 2.06836C10.1576 0.822266 12.1966 0.199219 14.4434 0.199219C16.7656 0.199219 18.833 0.888346 20.6455 2.2666C22.458 3.64486 23.8646 5.62728 24.8652 8.21387C25.8659 10.7816 26.3662 13.708 26.3662 16.9932V19.9102C26.3662 26.9336 24.818 32.4277 21.7217 36.3926C18.6442 40.3385 14.2734 42.3493 8.60938 42.4248H7.78809V35.5146H8.32617C11.4603 35.4958 13.8109 34.6839 15.3779 33.0791C16.9639 31.4743 17.9173 29.1331 18.2383 26.0557ZM14.6982 22.374C16.2464 22.374 17.4642 21.3167 18.3516 19.2021V15.5205C18.3516 12.8206 17.9834 10.7061 17.2471 9.17676C16.5107 7.62858 15.5573 6.85449 14.3867 6.85449C13.235 6.85449 12.3005 7.61914 11.583 9.14844C10.8844 10.6589 10.5352 12.5091 10.5352 14.6992C10.5352 17.0781 10.9033 18.9567 11.6396 20.335C12.376 21.6943 13.3955 22.374 14.6982 22.374ZM55.9893 24.9512C55.9893 30.653 54.9508 35.0143 52.874 38.0352C50.8161 41.056 47.8708 42.5664 44.0381 42.5664C40.2432 42.5664 37.3073 41.1032 35.2305 38.1768C33.1725 35.2314 32.1058 31.0212 32.0303 25.5459V17.7578C32.0303 12.0749 33.0592 7.73242 35.1172 4.73047C37.1751 1.70964 40.1299 0.199219 43.9814 0.199219C47.833 0.199219 50.7878 1.69076 52.8457 4.67383C54.9036 7.6569 55.9515 11.9144 55.9893 17.4463V24.9512ZM47.9463 16.5967C47.9463 13.3493 47.6253 10.9137 46.9834 9.29004C46.3415 7.66634 45.3408 6.85449 43.9814 6.85449C41.4326 6.85449 40.111 9.82812 40.0166 15.7754V26.0557C40.0166 29.3786 40.3376 31.8519 40.9795 33.4756C41.6403 35.0993 42.6598 35.9111 44.0381 35.9111C45.3408 35.9111 46.3037 35.1559 46.9268 33.6455C47.5687 32.1162 47.9085 29.7845 47.9463 26.6504V16.5967ZM85.3291 24.9512C85.3291 30.653 84.2907 35.0143 82.2139 38.0352C80.1559 41.056 77.2106 42.5664 73.3779 42.5664C69.583 42.5664 66.6471 41.1032 64.5703 38.1768C62.5124 35.2314 61.4456 31.0212 61.3701 25.5459V17.7578C61.3701 12.0749 62.3991 7.73242 64.457 4.73047C66.515 1.70964 69.4697 0.199219 73.3213 0.199219C77.1729 0.199219 80.1276 1.69076 82.1855 4.67383C84.2435 7.6569 85.2913 11.9144 85.3291 17.4463V24.9512ZM77.2861 16.5967C77.2861 13.3493 76.9652 10.9137 76.3232 9.29004C75.6813 7.66634 74.6807 6.85449 73.3213 6.85449C70.7725 6.85449 69.4508 9.82812 69.3564 15.7754V26.0557C69.3564 29.3786 69.6774 31.8519 70.3193 33.4756C70.9801 35.0993 71.9997 35.9111 73.3779 35.9111C74.6807 35.9111 75.6436 35.1559 76.2666 33.6455C76.9085 32.1162 77.2484 29.7845 77.2861 26.6504V16.5967Z" fill="url(#paint0_linear)"/>
<path d="M32.9121 58.8486H32.2285V62H31.0186V54.6035H32.2285V57.7344H32.8301L34.8467 54.6035H36.2891L33.8213 58.124L36.4668 62H34.9492L32.9121 58.8486ZM37.7383 62V54.6035H40.2197C41.0674 54.6035 41.7145 54.7767 42.1611 55.123C42.6077 55.4694 42.8311 55.973 42.8311 56.6338C42.8311 56.9756 42.7422 57.2832 42.5645 57.5566C42.3867 57.8301 42.127 58.0397 41.7852 58.1855C42.1634 58.2858 42.4665 58.4886 42.6943 58.7939C42.9268 59.0993 43.043 59.4684 43.043 59.9014C43.043 60.585 42.8288 61.1068 42.4004 61.4668C41.9766 61.8223 41.375 62 40.5957 62H37.7383ZM38.9414 58.7529V60.9814H40.6094C41.4251 60.9814 41.833 60.6077 41.833 59.8604C41.833 59.1221 41.4206 58.7529 40.5957 58.7529H38.9414ZM38.9414 57.7412H40.2061C41.1494 57.7412 41.6211 57.3949 41.6211 56.7021C41.6211 56.0049 41.1768 55.6471 40.2881 55.6289H38.9414V57.7412ZM45.0186 62.8545H43.9932L47.4863 52.0469H48.5049L45.0186 62.8545ZM53.5088 60.3252L55.4912 54.6035H56.9951V62H55.792V56.9004L53.9258 62H53.0986L51.1914 56.7773V62H49.9883V54.6035H51.5469L53.5088 60.3252Z" fill="#2E35AC"/>
<defs>
<linearGradient id="paint0_linear" x1="0" y1="2" x2="18.2371" y2="33.256" gradientUnits="userSpaceOnUse">
<stop stop-color="#D10A42"/>
<stop offset="1" stop-color="#0041CA"/>
</linearGradient>
</defs>
</svg>

<svg width="89" height="63" fill="none" xmlns="http://www.w3.org/2000/svg"><path d="M18.238 26.056c-1.699 1.737-3.559 2.605-5.579 2.605-3.134 0-5.607-1.255-7.42-3.767-1.793-2.53-2.69-5.9-2.69-10.11 0-2.719.51-5.201 1.53-7.448C5.097 5.07 6.513 3.314 8.325 2.068 10.158.822 12.196.2 14.443.2c2.323 0 4.39.69 6.202 2.068 1.813 1.378 3.22 3.36 4.22 5.947 1 2.568 1.501 5.494 1.501 8.78v2.916c0 7.024-1.548 12.518-4.644 16.483-3.078 3.946-7.449 5.956-13.113 6.032h-.82v-6.91h.537c3.134-.02 5.485-.831 7.052-2.436 1.586-1.605 2.54-3.946 2.86-7.023zm-3.54-3.682c1.548 0 2.766-1.057 3.654-3.172V15.52c0-2.7-.369-4.814-1.105-6.343-.736-1.548-1.69-2.323-2.86-2.323-1.152 0-2.087.765-2.804 2.294-.699 1.51-1.048 3.361-1.048 5.551 0 2.38.368 4.258 1.105 5.636.736 1.36 1.755 2.039 3.058 2.039zm41.291 2.577c0 5.702-1.038 10.063-3.115 13.084-2.058 3.021-5.003 4.531-8.836 4.531-3.795 0-6.73-1.463-8.807-4.39-2.059-2.945-3.125-7.155-3.2-12.63v-7.788c0-5.683 1.028-10.026 3.086-13.028C37.175 1.71 40.13.2 43.981.2c3.852 0 6.807 1.49 8.865 4.474 2.058 2.983 3.106 7.24 3.143 12.772v7.505zm-8.043-8.354c0-3.248-.32-5.683-.963-7.307-.641-1.624-1.642-2.436-3.002-2.436-2.548 0-3.87 2.974-3.964 8.921v10.28c0 3.324.32 5.797.962 7.42.661 1.624 1.68 2.436 3.06 2.436 1.302 0 2.265-.755 2.888-2.266.642-1.529.981-3.86 1.02-6.995V16.597zM85.33 24.95c0 5.702-1.038 10.063-3.115 13.084-2.058 3.021-5.003 4.531-8.836 4.531-3.795 0-6.73-1.463-8.808-4.39-2.058-2.945-3.124-7.155-3.2-12.63v-7.788c0-5.683 1.03-10.026 3.087-13.028C66.515 1.71 69.47.2 73.321.2c3.852 0 6.807 1.49 8.865 4.474 2.057 2.983 3.105 7.24 3.143 12.772v7.505zm-8.043-8.354c0-3.248-.32-5.683-.963-7.307-.642-1.624-1.642-2.436-3.002-2.436-2.549 0-3.87 2.974-3.965 8.921v10.28c0 3.324.321 5.797.963 7.42.661 1.624 1.68 2.436 3.059 2.436 1.303 0 2.266-.755 2.889-2.266.642-1.529.981-3.86 1.02-6.995V16.597z" fill="url(#paint0_linear)"/><path d="M32.912 58.849h-.684V62h-1.21v-7.397h1.21v3.131h.602l2.017-3.13h1.442l-2.468 3.52L36.467 62h-1.518l-2.037-3.151zM37.738 62v-7.397h2.482c.847 0 1.495.174 1.941.52.447.346.67.85.67 1.51 0 .343-.089.65-.267.924a1.688 1.688 0 01-.779.628c.378.1.682.304.91.609.232.305.348.674.348 1.107 0 .684-.214 1.206-.643 1.566-.423.355-1.025.533-1.804.533h-2.858zm1.203-3.247v2.228h1.668c.816 0 1.224-.373 1.224-1.12 0-.739-.412-1.108-1.237-1.108H38.94zm0-1.012h1.265c.943 0 1.415-.346 1.415-1.039 0-.697-.444-1.055-1.333-1.073h-1.347v2.112zm6.078 5.114h-1.026l3.493-10.808h1.019l-3.486 10.808zm8.49-2.53l1.982-5.722h1.504V62h-1.203v-5.1L53.926 62h-.827l-1.908-5.223V62h-1.203v-7.397h1.559l1.962 5.722z" fill="#2E35AC"/><defs><linearGradient id="paint0_linear" x1="0" y1="2" x2="18.237" y2="33.256" gradientUnits="userSpaceOnUse"><stop stop-color="#D10A42"/><stop offset="1" stop-color="#0041CA"/></linearGradient></defs></svg>
